X:569
T: "Nonnenlied. "
N: Z1249
O: Europa, Mitteleuropa, Deutschland, Mittelrhein
R: Liebes - Lied
M: 6/8
L: 1/16
K: G
D2 | G4G2G2A2B2 | B2A2A2A4
GB | d4d2d2c2B2 | B6A2z2
d2 | A2A2B2c2B2A2 | B4c2e2d2
d2 | A2A2B2c2B2A2 | B4c2e2d2
d2 | d2d2d2e2d2c2 | B4c2d4
e2 | d2d2d2d2c2c2 | B6z4

